svgs/sharp-light/bell-school.svg

<svg xmlns="http://www.w3.org/2000/svg" viewBox="0 0 512 512"><!--! Font Awesome Pro 6.6.0 by @fontawesome - https://fontawesome.com License - https://fontawesome.com/license (Commercial License) Copyright 2024 Fonticons, Inc. --><path d="M208 384a176 176 0 1 0 0-352 176 176 0 1 0 0 352zm0 32c-41.2 0-79.7-12-112-32.7L96 480l176 0 48 0 0-96.7C287.7 404 249.2 416 208 416zm64 96L80 512l-16 0 0-16 0-137.9C24.6 320.2 0 267 0 208C0 93.1 93.1 0 208 0S416 93.1 416 208c0 59-24.6 112.2-64 150.1L352 480l96 0 0-34.7c-18.6-6.6-32-24.4-32-45.3c0-26.5 21.5-48 48-48s48 21.5 48 48c0 20.9-13.4 38.7-32 45.3l0 50.7 0 16-16 0-112 0-16 0-64 0zM256 208a48 48 0 1 0 -96 0 48 48 0 1 0 96 0zm-128 0a80 80 0 1 1 160 0 80 80 0 1 1 -160 0zM464 416a16 16 0 1 0 0-32 16 16 0 1 0 0 32z"/></svg>

<svg xmlns="http://www.w3.org/2000/svg" viewBox="0 0 512 512"><!--! Font Awesome Pro 6.4.2 by @fontawesome - https://fontawesome.com License - https://fontawesome.com/license (Commercial License) Copyright 2023 Fonticons, Inc. --><path d="M208 384a176 176 0 1 0 0-352 176 176 0 1 0 0 352zm0 32c-41.2 0-79.7-12-112-32.7V480H272h48V383.3C287.7 404 249.2 416 208 416zm64 96H80 64V496 358.1C24.6 320.2 0 267 0 208C0 93.1 93.1 0 208 0S416 93.1 416 208c0 59-24.6 112.2-64 150.1V480h96V445.3c-18.6-6.6-32-24.4-32-45.3c0-26.5 21.5-48 48-48s48 21.5 48 48c0 20.9-13.4 38.7-32 45.3V496v16H464 352 336 272zM256 208a48 48 0 1 0 -96 0 48 48 0 1 0 96 0zm-128 0a80 80 0 1 1 160 0 80 80 0 1 1 -160 0zM464 416a16 16 0 1 0 0-32 16 16 0 1 0 0 32z"/></svg>
